X:3378
T:Controversial
M:C
L:1/8
K:G Major
GA|BABe dBB2|gabg abge|dGBd gedB|A2GB ABGA|!
Bdde dBB2|gfgb abge|edBd gedB|GBAF G2:|!
cA|Bdd2 AdBA|GEDE GABd|eBae gedB|A2GB ABGA|!
Bdd2 AdBA|GEDE GABd|bgaf gedB|GBAF G2:|!


